x-pack/solutions/search/plugins/enterprise_search/public/assets/client_libraries/ruby.svg

<svg width="24" height="24" viewBox="0 0 24 24" fill="none" xmlns="http://www.w3.org/2000/svg">
<path fill-rule="evenodd" clip-rule="evenodd" d="M7.93374 18.8694L19.8239 20.4925C18.4639 18.2284 17.139 16.0223 15.8034 13.7981L7.93374 18.8694ZM20.9485 6.3373C20.5973 6.8648 20.2453 7.39186 19.8945 7.91965C18.6896 9.73197 17.4854 11.5447 16.2817 13.3578C16.2147 13.4588 16.1278 13.5389 16.2222 13.6945C17.3851 15.6149 18.5389 17.5409 19.6956 19.4652C19.8781 19.7692 20.0627 20.0719 20.2987 20.3635L21 6.3521L20.9485 6.3373ZM5.07299 12.325C5.12739 12.3765 5.26318 12.4066 5.32644 12.3754C6.44193 11.8271 7.56452 11.2911 8.65564 10.6977C9.01151 10.5043 9.28512 10.1576 9.59167 9.87643C10.6068 8.94548 11.6203 8.01264 12.6333 7.07966C12.6953 7.02235 12.7687 6.96693 12.8057 6.89469C13.1695 6.18352 13.5271 5.46873 13.8974 4.73335C13.4559 4.56738 13.0374 4.40504 12.6136 4.25735C12.5561 4.23733 12.4656 4.27708 12.4034 4.31175C11.4225 4.85971 10.4232 5.3785 9.47358 5.97607C8.99845 6.27507 8.61139 6.71566 8.19067 7.09939C7.51259 7.71828 6.83537 8.33863 6.16715 8.96826C5.98888 9.13729 5.82898 9.3247 5.69014 9.52738C5.23315 10.1928 4.7898 10.8679 4.32614 11.5621C4.58524 11.83 4.82085 12.0862 5.07299 12.325ZM9.14991 11.4152L7.47341 18.4983L15.351 13.4225L9.14991 11.4152ZM20.2672 6.35994L13.572 7.47847L15.8441 13.0053C17.327 10.7771 18.7805 8.59352 20.2672 6.35994ZM9.24305 10.9358L15.3206 12.9088C14.5589 11.0533 13.8234 9.26261 13.0726 7.43408L9.24305 10.9358ZM5.15699 13.6921L3.02989 18.7767L7.08113 18.657L5.15699 13.6921ZM7.129 17.478L7.1792 17.4669C7.66564 15.4444 8.15904 13.4359 8.65564 11.3343L5.4055 13.0236C5.95955 14.4636 6.5503 15.9827 7.129 17.478ZM19.4499 6.03192C18.803 5.86058 18.1561 5.68867 17.5089 5.5185C16.5787 5.2739 15.6477 5.03235 14.7181 4.78557C14.6019 4.75467 14.5179 4.73451 14.4495 4.8745C14.1209 5.54766 13.7822 6.21573 13.4484 6.88642C13.4381 6.90716 13.4402 6.934 13.4323 6.98608L19.4486 6.07428L19.4499 6.03192ZM15.6969 4.50079L20.9694 5.95938L20.0982 3.47713L15.7046 4.45132L15.6969 4.50079ZM7.57598 19.2578C6.923 19.1825 6.2526 19.2517 5.59033 19.2631C5.0463 19.2723 4.50226 19.293 3.95823 19.31C3.90223 19.3117 3.84637 19.323 3.79052 19.3834C8.28831 19.7992 12.7859 20.215 17.2836 20.6311L17.2927 20.571L12.9673 19.9805C11.1707 19.7352 9.3771 19.4654 7.57598 19.2578ZM3.11882 17.2248C3.6984 15.88 4.27551 14.5342 4.85741 13.1904C4.91558 13.0556 4.91108 12.9641 4.7972 12.8556C4.55376 12.6239 4.32759 12.3742 4.06152 12.0974C3.70188 13.8731 3.35108 15.6049 3 17.3365L3.03932 17.3549C3.06615 17.3119 3.09894 17.2711 3.11882 17.2248ZM14.5421 4.14579C15.5195 3.89365 16.5111 3.69649 17.4969 3.47655C17.5607 3.46219 17.6231 3.44115 17.6859 3.42317L17.6762 3.375L13.4408 3.94486C13.8385 4.11851 14.1449 4.24821 14.5421 4.14579Z" fill="#D91404"/>
</svg>

<svg xmlns="http://www.w3.org/2000/svg" width="24" height="24" fill="none"><path fill="#D91404" fill-rule="evenodd" d="m7.934 18.87 11.89 1.622-4.02-6.694zM20.948 6.336q-.527.792-1.053 1.583l-3.613 5.438c-.067.1-.154.18-.06.336 1.163 1.92 2.317 3.847 3.474 5.771.182.304.367.607.603.898L21 6.353zM5.073 12.325c.054.052.19.082.253.05 1.116-.548 2.239-1.084 3.33-1.677.356-.194.63-.54.936-.822q1.522-1.396 3.041-2.796c.062-.058.136-.113.173-.185.364-.711.721-1.426 1.091-2.162-.441-.166-.86-.328-1.283-.476-.058-.02-.148.02-.21.055-.982.548-1.98 1.066-2.93 1.664-.476.3-.863.74-1.283 1.123-.678.62-1.356 1.24-2.024 1.87a3.5 3.5 0 0 0-.477.558c-.457.666-.9 1.34-1.364 2.035.26.268.495.524.747.763m4.077-.91-1.677 7.083 7.878-5.076zM20.267 6.36l-6.695 1.118 2.272 5.527zM9.243 10.936l6.078 1.973-2.248-5.475zm-4.086 2.756L3.03 18.777l4.051-.12zm1.972 3.786.05-.011c.487-2.023.98-4.031 1.477-6.133l-3.25 1.69c.554 1.44 1.144 2.959 1.723 4.454m12.32-11.446q-.97-.257-1.94-.513-1.396-.366-2.79-.733c-.117-.031-.201-.051-.27.089-.328.673-.667 1.34-1 2.011-.01.021-.009.048-.017.1l6.017-.912zM15.698 4.5l5.272 1.458-.87-2.482-4.394.974zM7.576 19.258c-.653-.075-1.323-.006-1.986.005-.544.01-1.088.03-1.632.047a.22.22 0 0 0-.167.073l13.493 1.248.009-.06-4.326-.59c-1.796-.246-3.59-.516-5.391-.723m-4.457-2.033q.868-2.017 1.738-4.035c.059-.134.054-.226-.06-.334-.243-.232-.47-.482-.735-.759L3 17.337l.04.018c.026-.043.059-.084.079-.13m11.423-13.08c.978-.251 1.97-.449 2.955-.668.064-.015.126-.036.189-.054l-.01-.048-4.235.57c.397.174.704.303 1.101.2" clip-rule="evenodd"/></svg>
